svgs/globeone.svg

<svg width="192" height="192" viewBox="0 0 192 192" fill="none" xmlns="http://www.w3.org/2000/svg"><path fill-rule="evenodd" clip-rule="evenodd" d="M105 22a9 9 0 1 1-9-9 9 9 0 0 1 9 9Zm20.45-.382a6 6 0 0 0-7.787 3.37 6 6 0 0 0 3.369 7.787 67.982 67.982 0 0 1 31.288 25.12 67.967 67.967 0 0 1 6.905 13.072 6 6 0 0 0 11.157-4.418 79.97 79.97 0 0 0-23.289-32.108 80 80 0 0 0-21.643-12.823ZM49.525 145.639a68.004 68.004 0 0 0 79.234 9.95 67.997 67.997 0 0 0 30.466-34.557 6 6 0 0 1 7.787-3.369 6 6 0 0 1 3.37 7.787 79.997 79.997 0 0 1-152.965-14.459A80 80 0 0 1 66.55 21.618a6 6 0 0 1 4.417 11.157A68 68 0 0 0 49.525 145.64ZM96 68c-15.464 0-28 12.536-28 28s12.536 28 28 28 28-12.536 28-28-12.536-28-28-28ZM56 96c0-22.091 17.909-40 40-40s40 17.909 40 40-17.909 40-40 40-40-17.909-40-40Zm114 9a9 9 0 0 0 9-9 9 9 0 0 0-9-9 9 9 0 0 0-9 9 9 9 0 0 0 9 9Z" fill="#000"/></svg>

<svg id="vector" xmlns="http://www.w3.org/2000/svg" width="192" height="192" viewBox="0 0 192 192"><path fill="#000000" d="M105,22C105,26.971 100.971,31 96,31C91.029,31 87,26.971 87,22C87,17.029 91.029,13 96,13C100.971,13 105,17.029 105,22ZM125.45,21.618C122.369,20.398 118.882,21.907 117.663,24.988C116.443,28.069 117.951,31.555 121.032,32.775C128.411,35.696 135.163,39.862 141.022,45.039C145.298,48.816 149.098,53.132 152.32,57.895C155.073,61.962 157.393,66.341 159.225,70.967C160.444,74.048 163.931,75.557 167.012,74.337C170.093,73.117 171.602,69.63 170.382,66.549C168.06,60.685 165.07,55.157 161.496,50.062C158.108,45.232 154.208,40.808 149.876,36.861C148.968,36.034 148.04,35.227 147.093,34.441L147.093,34.441C140.647,29.091 133.354,24.747 125.45,21.618ZM49.525,145.639C58.876,154.395 70.56,160.373 83.258,162.796C98.802,165.761 114.893,163.212 128.759,155.589C142.626,147.966 153.4,135.745 159.225,121.032C160.445,117.951 163.931,116.443 167.012,117.663C170.093,118.882 171.602,122.369 170.382,125.45C163.529,142.759 150.854,157.136 134.54,166.104C118.227,175.073 99.296,178.071 81.01,174.583C65.626,171.648 51.508,164.278 40.349,153.472C39.611,152.757 38.889,152.03 38.181,151.29C27.564,140.188 20.32,126.209 17.417,110.991C13.929,92.704 16.927,73.774 25.895,57.46C34.864,41.146 49.241,28.471 66.549,21.618C69.631,20.398 73.117,21.907 74.337,24.988C75.557,28.069 74.048,31.556 70.967,32.775C56.255,38.601 44.034,49.375 36.411,63.241C28.788,77.108 26.239,93.199 29.205,108.742C31.151,118.947 35.394,128.496 41.529,136.706C41.919,137.227 42.316,137.743 42.72,138.253C43.011,138.62 43.306,138.984 43.605,139.345C44.232,140.103 44.874,140.845 45.53,141.572C46.801,142.98 48.133,144.337 49.525,145.639ZM96,68C80.536,68 68,80.536 68,96C68,111.464 80.536,124 96,124C111.464,124 124,111.464 124,96C124,80.536 111.464,68 96,68ZM56,96C56,73.909 73.909,56 96,56C118.091,56 136,73.909 136,96C136,118.091 118.091,136 96,136C73.909,136 56,118.091 56,96ZM170,105C174.971,105 179,100.971 179,96C179,91.029 174.971,87 170,87C165.029,87 161,91.029 161,96C161,100.971 165.029,105 170,105Z" fill-rule="evenodd" id="path_0"/></svg>
